assets/img/drawn-misc.svg

<svg width="100" height="108" viewBox="0 0 100 108" fill="none" xmlns="http://www.w3.org/2000/svg">
<path fill-rule="evenodd" clip-rule="evenodd" d="M39.525 21.6205C39.2309 19.8761 39.0093 18.1514 38.8662 16.4266C38.6505 13.8393 38.7839 11.2322 38.7074 8.64497C38.6741 7.54733 38.5427 4.68569 38.5956 4.27407C39.076 0.687165 41.9719 0.138282 42.819 0.0402793C43.2288 -0.0185224 47.4364 -0.488726 48.3442 4.17621C49.4579 9.87998 49.8148 15.6229 49.4207 21.2482C50.3402 26.0308 51.9128 30.7936 53.9891 35.1058C62.2516 52.2563 77.996 53.9224 95.0541 53.7656C97.6775 53.7264 99.8559 55.7844 99.9932 58.3913C100.13 61.0177 98.1776 63.2914 95.5659 63.5266C86.031 64.4478 69.1139 72.0922 63.2652 80.05C62.0417 81.7161 61.33 85.7342 60.3888 89.674C59.0752 95.1425 57.5125 100.552 55.7616 102.826C55.4989 103.179 52.3048 106.785 51.3519 107.314C49.0618 108.569 47.2286 107.844 46.1875 107.177C45.1464 106.511 43.968 105.198 43.4974 103.022C43.0052 100.748 43.4209 96.0831 43.3444 95.0835C43.066 91.4574 42.3406 84.3424 40.8603 78.2271C40.0623 74.9342 39.2113 71.8961 37.8035 70.3868C32.592 64.8006 24.259 65.6239 17.2416 66.5452C16.4358 66.6432 15.6299 66.7608 14.826 66.8588C11.9693 67.7017 8.936 68.3288 5.73024 68.7012C0.889262 69.2696 0.0932696 64.8203 0.0501341 64.5263C-0.0400583 63.8794 -0.375374 60.5474 3.2735 59.2146C3.67152 59.0774 6.60869 58.4305 7.74001 58.1757C9.31642 57.8229 10.9104 57.5486 12.5104 57.2938C29.0372 52.1584 38.0133 37.7322 39.525 21.6205ZM45.1973 39.4376C51.4363 52.3348 60.9045 58.5677 72.1276 61.3902H72.1257C65.1181 65.0555 58.7438 69.6422 55.3655 74.2483C54.0832 75.9928 52.9068 79.5012 51.8461 83.4409C51.2716 79.7756 50.4952 75.8749 49.4697 72.5428C48.3031 68.7403 46.7325 65.5848 44.9796 63.7032C41.5955 60.0771 37.3486 58.0582 32.7821 57.0586C38.2485 52.2172 42.3935 46.1803 45.1973 39.4376Z" fill="#222021"/>
</svg>

<svg width="100" height="108" fill="none" xmlns="http://www.w3.org/2000/svg"><path fill-rule="evenodd" clip-rule="evenodd" d="M39.525 21.62a62.04 62.04 0 0 1-.659-5.193c-.215-2.588-.082-5.195-.159-7.782-.033-1.098-.164-3.96-.111-4.37C39.076.686 41.972.137 42.819.04c.41-.059 4.617-.529 5.525 4.136a65.308 65.308 0 0 1 1.077 17.072 57.193 57.193 0 0 0 4.568 13.858c8.263 17.15 24.007 18.816 41.065 18.66 2.623-.04 4.802 2.018 4.94 4.625.136 2.627-1.816 4.9-4.428 5.136-9.535.92-26.452 8.565-32.3 16.523-1.224 1.666-1.936 5.684-2.877 9.624-1.314 5.468-2.877 10.878-4.627 13.152-.263.353-3.457 3.959-4.41 4.488-2.29 1.255-4.123.53-5.164-.137-1.042-.666-2.22-1.979-2.69-4.155-.493-2.274-.077-6.939-.154-7.939-.278-3.626-1.003-10.74-2.484-16.856-.798-3.293-1.649-6.33-3.056-7.84-5.212-5.586-13.545-4.763-20.562-3.842-.806.098-1.612.216-2.416.314A54.202 54.202 0 0 1 5.73 68.7C.89 69.27.093 64.821.05 64.526c-.09-.647-.425-3.979 3.224-5.311.398-.138 3.335-.785 4.466-1.04 1.576-.352 3.17-.626 4.77-.881 16.527-5.136 25.503-19.562 27.015-35.673Zm5.672 17.818c6.24 12.897 15.707 19.13 26.93 21.952h-.001c-7.008 3.665-13.382 8.252-16.76 12.858-1.283 1.745-2.46 5.253-3.52 9.193-.574-3.665-1.35-7.566-2.376-10.898-1.167-3.803-2.737-6.958-4.49-8.84-3.384-3.626-7.631-5.645-12.198-6.644 5.467-4.842 9.612-10.879 12.415-17.621Z" fill="#222021"/></svg>
